X: 160
T:Sanctus De passione
N: Derived from Jos1309-Sanctus_De_passione.krn
C: Josquin des Prez
%%abc-version 2.0
%%abcx-abcm2ps-target-version 5.9.1 (29 Sep 2008)
%%abc-creator hum2abc beta
%%abcx-conversion-date 2019/02/12 16:15:46
%%abc-edited-by Jesse Rodin
%%abc-edited-by Jesse Rodin; Victoria Chang 2012/02/25
%%abcx-initial-encoding-date 2012/02/25/
%%humdrum-veritas 3862441631
%%humdrum-veritas-data 4141900749
%%linebreak <none>
%%barnumbers 0
L: 1/4
M: 3/1
Q: 1/2=120
%%staves [1 2 3 4]
V: 1 clef=treble
V: 2 clef=treble-8
V: 3 clef=treble-8
V: 4 clef=bass
K: C
[V:1] E8G4 | 
[V:2] z12 | 
[V:3] e8e4 | 
[V:4] E,12- | 
[V:1] G4A6G2 | 
[V:2] z12 | 
[V:3] c6d6 | 
[V:4] E,4F,8 | 
[V:1] G8z4 | 
[V:2] B8c4 | 
[V:3] e8z4 | 
[V:4] E,8z4 | 
[V:1] G8G2A2 | 
[V:2] B6G2c4 | 
[V:3] e8e4 | 
[V:4] E,8C,4 | 
[V:1] B6c4BA | 
[V:2] B4G4A4 | 
[V:3] d3cd2e2c2d2 | 
[V:4] G,6E,2F,4 | 
[V:1] G4z4A4 | 
[V:2] B2c4BAd4 | 
[V:3] e6d2f4 | 
[V:4] E,4C,2D,4C,2 | 
[V:1] c4B3AGFE2- | 
[V:2] c2A2B2G4A2- | 
[V:3] e2c2d4e4 | 
[V:4] A,,4G,,4C,4- | 
[V:1] E2D2A4G3E | 
[V:2] AGFED4z4 | 
[V:3] A6d4c2 | 
[V:4] C,2D,2F,4E,4 | 
[V:1] F2G2E4z4 | 
[V:2] z2G3FE4D2 | 
[V:3] d2B3AA4^G2 | 
[V:4] D,2E,4C,2B,,4 | 
[V:1] c6c2c4 | 
[V:2] E8F4- | 
[V:3] A12 | 
[V:4] A,,8z4 | 
[V:1] c6BAc3B | 
[V:2] F2F2F4f4 | 
[V:3] z4c6c2 | 
[V:4] F,,6F,,2F,,4 | 
[V:1] G2A4F2G2C2- | 
[V:2] e4z4z4 | 
[V:3] c4A2_B2G2A2 | 
[V:4] C,4D,4E,2F,2- | 
[V:1] C2F4E2D4 | 
[V:2] z12 | 
[V:3] F3GAFc4B2 | 
[V:4] F,2D,4C,2F,2G,2 | 
[V:1] C4B,4B,4 | 
[V:2] e12- | 
[V:3] c2A2E8 | 
[V:4] A,4G,2A,3^F,^G,2 | 
[V:1] A,2A2G2A3^F^G2 | 
[V:2] e8e4 | 
[V:3] c6A2B4 | 
[V:4] A,4z4E,4 | 
[V:1] A12 | 
[V:2] c2d4e2f3e | 
[V:3] A12- | 
[V:4] F,3E,D,2C,2D,2E,2 | 
[V:1] A3GF2E2D4 | 
[V:2] d2c2d2e2f3e | 
[V:3] A12- | 
[V:4] F,3E,D,2C,2D,3E, | 
[V:1] C12 ||  
[V:2] e12 ||  
[V:3] A12 ||  
[V:4] A,,12 ||  
[V:1]  [K:C] [K:clef=treble][M:3/1]E4G4A3B | 
[V:2]  [K:C] [K:clef=treble-8][M:3/1]e8f4 | 
[V:3]  [K:C] [K:clef=treble-8][M:3/1]z12 | 
[V:4]  [K:C] [K:clef=bass][M:3/1]z12 | 
[V:1] c4B2c4BA | 
[V:2] e2c2d2e2f4 | 
[V:3] z12 | 
[V:4] z12 | 
[V:1] c2B2G4A3G | 
[V:2] e3defg4fe | 
[V:3] z12 | 
[V:4] z12 | 
[V:1] E2D2G4F4 | 
[V:2] g2f3ee4d2 | 
[V:3] z12 | 
[V:4] z12 | 
[V:1] E8E3D | 
[V:2] e2A3GABc3B | 
[V:3] z12 | 
[V:4] z12 | 
[V:1] EFG4E2D4 | 
[V:2] A2G4c2d2B2 | 
[V:3] z12 | 
[V:4] z12 | 
[V:1] C2G2A2c4B2 | 
[V:2] c8d3e | 
[V:3] z12 | 
[V:4] z12 | 
[V:1] A2G3F/E/DCc2B2- | 
[V:2] f2e3df2e3d | 
[V:3] z12 | 
[V:4] z12 | 
[V:1] BAc3BA4^G2 | 
[V:2] f2e4c2B4 | 
[V:3] z12 | 
[V:4] z12 | 
[V:1] A12 ||  
[V:2] A12 ||  
[V:3] z12 ||  
[V:4] z12 ||  
[V:1]  [K:C] [K:clef=treble][M:3/1]A8A4 | 
[V:2]  [K:C] [K:clef=treble-8][M:3/1]f8f4 | 
[V:3]  [K:C] [K:clef=treble-8][M:3/1]c8c4 | 
[V:4]  [K:C] [K:clef=bass][M:3/1]F,8F,4 | 
[V:1] G8A4 | 
[V:2] e8c4 | 
[V:3] c8A4 | 
[V:4] C,8F,4 | 
[V:1] B4d8 | 
[V:2] g4f8 | 
[V:3] G4A8 | 
[V:4] E,4D,8 | 
[V:1] c12 ||  
[V:2] e12 ||  
[V:3] A12 ||  
[V:4] A,,12 ||  
[V:1]  [K:C] [K:clef=treble][M:2/1]G8 | 
[V:2]  [K:C] [K:clef=treble-8][M:2/1]e8 | 
[V:3]  [K:C] [K:clef=treble-8][M:2/1]E8 | 
[V:4]  [K:C] [K:clef=bass][M:2/1]E,8 | 
[V:1] !fermata!B8 | 
[V:2] !fermata!e8 | 
[V:3] !fermata!G8 | 
[V:4] !fermata!E,8 | 
[V:1] c8 | 
[V:2] c8 | 
[V:3] A8 | 
[V:4] A,,8 | 
[V:1] B4A4 | 
[V:2] g4f4 | 
[V:3] G4A4 | 
[V:4] E,4F,4 | 
[V:1] G8- | 
[V:2] e8- | 
[V:3] c8- | 
[V:4] C,8- | 
[V:1] G4G4 | 
[V:2] e4e4 | 
[V:3] c4c4 | 
[V:4] C,4C,4 | 
[V:1] !fermata!G8 | 
[V:2] !fermata!e8 | 
[V:3] !fermata!c8 | 
[V:4] !fermata!C,8 | 
[V:1] G8 | 
[V:2] c8 | 
[V:3] E8 | 
[V:4] C,8 | 
[V:1] E8 | 
[V:2] c8- | 
[V:3] G8 | 
[V:4] C,8 | 
[V:1] F8 | 
[V:2] c4c4 | 
[V:3] A8 | 
[V:4] F,8 | 
[V:1] G4F4 | 
[V:2] c4F4 | 
[V:3] G4A4 | 
[V:4] E,4D,4 | 
[V:1] E8- | 
[V:2] A8- | 
[V:3] c8- | 
[V:4] A,,8- | 
[V:1] E4E4 | 
[V:2] A4A4 | 
[V:3] c4c4 | 
[V:4] A,,4A,,4 | 
[V:1] !fermata!E8 | 
[V:2] !fermata!A8 | 
[V:3] !fermata!c8 | 
[V:4] !fermata!A,,8 | 
[V:1] c8 | 
[V:2] c8 | 
[V:3] e8 | 
[V:4] A,,8 | 
[V:1] c8 | 
[V:2] c4g4- | 
[V:3] e8 | 
[V:4] C,8 | 
[V:1] B4A4 | 
[V:2] g4f4 | 
[V:3] d4d4 | 
[V:4] G,,4D,4 | 
[V:1] c8- | 
[V:2] e8- | 
[V:3] c8- | 
[V:4] A,,6B,,2 | 
[V:1] c4G4 | 
[V:2] e4e4 | 
[V:3] c4c4 | 
[V:4] C,4C,4 | 
[V:1] !fermata!G8 | 
[V:2] !fermata!e8 | 
[V:3] !fermata!c8 | 
[V:4] !fermata!C,8 | 
[V:1] c8 | 
[V:2] g8 | 
[V:3] e8 | 
[V:4] C,8 | 
[V:1] B4A4 | 
[V:2] g4e4 | 
[V:3] d4c4 | 
[V:4] G,4A,4 | 
[V:1] !fermata!G8 | 
[V:2] !fermata!e8 | 
[V:3] !fermata!B8 | 
[V:4] !fermata!E,8 | 
[V:1] G8- | 
[V:2] e8- | 
[V:3] G8- | 
[V:4] E,8- | 
[V:1] G4G4 | 
[V:2] e4e4 | 
[V:3] G4G4 | 
[V:4] E,4E,4 | 
[V:1] G4E4 | 
[V:2] e8- | 
[V:3] G8- | 
[V:4] C,8- | 
[V:1] E8- | 
[V:2] e4c4 | 
[V:3] G4A4 | 
[V:4] C,4A,,4 | 
[V:1] E8 ||  
[V:2] c8 ||  
[V:3] A8 ||  
[V:4] A,,8 ||  
[V:1]  [K:C] [K:clef=treble][M:3/1]z12 | 
[V:2]  [K:C] [K:clef=treble-8][M:3/1]z12 | 
[V:3]  [K:C] [K:clef=treble-8][M:3/1]E4G4A3B | 
[V:4]  [K:C] [K:clef=bass][M:3/1]E,8F,4 | 
[V:1] z12 | 
[V:2] z12 | 
[V:3] c4B2c4BA | 
[V:4] E,2C,2D,2E,2F,4 | 
[V:1] z12 | 
[V:2] z12 | 
[V:3] c2B2G4A3G | 
[V:4] E,3D,E,F,G,4F,E, | 
[V:1] z12 | 
[V:2] z12 | 
[V:3] E2D2G4F4 | 
[V:4] G,2F,3E,E,4D,2 | 
[V:1] z12 | 
[V:2] z12 | 
[V:3] E8E3D | 
[V:4] E,2A,,3G,,A,,B,,C,3B,, | 
[V:1] z12 | 
[V:2] z12 | 
[V:3] EFG4E2D4 | 
[V:4] A,,2G,,4C,2D,2B,,2 | 
[V:1] z12 | 
[V:2] z12 | 
[V:3] C2G2A2c4B2 | 
[V:4] C,8D,3E, | 
[V:1] z12 | 
[V:2] z12 | 
[V:3] A2G3F/E/DCc2B2- | 
[V:4] F,2E,3D,F,2E,3D, | 
[V:1] z12 | 
[V:2] z12 | 
[V:3] BAc3BA4^G2 | 
[V:4] F,2E,4C,2B,,4 | 
[V:1] z12 ||  
[V:2] z12 ||  
[V:3] A12 ||  
[V:4] A,,12 ||  



